X: 3377
M: 2/4
L: 1/16
K: D
uA2 |\
|: g2 |\
f2a2d3e | fefg a2(gf) | g2b2e3f | gfga b2(ag) |\
f2a2e2f2 | d3ef3e | dcBA d2f2 | (e4 d2) :|


